X: 43355
T: Wren's Nest, The
R: jig
M: 6/8
K: Edorian
|:D|GAB ded|cAA A2c|BGE EFG|AFD AFD|
GAB ded|cAA ABc|BGE AFD|GEE E2:|
|:D|EGe deB|cAA ~B2A|GAB ded|cAA BGD|
EGe deB|cAA ~B2A|GAB cAB|GEE FE:|
|:D|B,DE GED|B,EE E2D|B,DE GAB|AFD FED|
B,DE GED|B,EE E2F|GAB cAB|GEE E2:|

